assets/icons/icon-fail/web/icon-fail.svg

<?xml version="1.0" encoding="UTF-8" standalone="no"?>
<svg width="48px" height="48px" viewBox="0 0 48 48" version="1.1" xmlns="http://www.w3.org/2000/svg" xmlns:xlink="http://www.w3.org/1999/xlink">
    <!-- Generator: Sketch 45.2 (43514) - http://www.bohemiancoding.com/sketch -->
    <title>icon-fail</title>
    <desc>Created with Sketch.</desc>
    <defs></defs>
    <g id="Symbols" stroke="none" stroke-width="1" fill="none" fill-rule="evenodd">
        <g id="icon-fail" fill="#2D2D2D">
            <path d="M24.5,22.5857864 L19.7846568,17.8704432 C19.3857405,17.471527 18.7587963,17.4777477 18.368272,17.868272 C17.9750251,18.261519 17.9787198,18.8929334 18.3704432,19.2846568 L23.0857864,24 L18.3704432,28.7153432 C17.971527,29.1142595 17.9777477,29.7412037 18.368272,30.131728 C18.761519,30.5249749 19.3929334,30.5212802 19.7846568,30.1295568 L24.5,25.4142136 L29.2153432,30.1295568 C29.6142595,30.528473 30.2412037,30.5222523 30.631728,30.131728 C31.0249749,29.738481 31.0212802,29.1070666 30.6295568,28.7153432 L25.9142136,24 L30.6295568,19.2846568 C31.028473,18.8857405 31.0222523,18.2587963 30.631728,17.868272 C30.238481,17.4750251 29.6070666,17.4787198 29.2153432,17.8704432 L24.5,22.5857864 Z"></path>
        </g>
    </g>
</svg>

<svg width="48" height="48" viewBox="0 0 48 48" xmlns="http://www.w3.org/2000/svg"><title>icon-fail</title><path d="M24.5 22.586l-4.715-4.716a.995.995 0 0 0-1.417-.002 1 1 0 0 0 .002 1.417L23.086 24l-4.716 4.715a.995.995 0 0 0-.002 1.417 1 1 0 0 0 1.417-.002l4.715-4.716 4.715 4.716a.995.995 0 0 0 1.417.002 1 1 0 0 0-.002-1.417L25.914 24l4.716-4.715a.995.995 0 0 0 .002-1.417 1 1 0 0 0-1.417.002L24.5 22.586z" fill="#2D2D2D" fill-rule="evenodd"/></svg>
